images/Learn21.svg

<?xml version="1.0" encoding="UTF-8"?>
<svg width="410px" height="175px" viewBox="0 0 410 175" version="1.1" xmlns="http://www.w3.org/2000/svg" xmlns:xlink="http://www.w3.org/1999/xlink">
    <!-- Generator: Sketch 43.2 (39069) - http://www.bohemiancoding.com/sketch -->
    <title>Learn21</title>
    <desc>Created with Sketch.</desc>
    <defs></defs>
    <g id="Page-1" stroke="none" stroke-width="1" fill="none" fill-rule="evenodd">
        <g id="Group">
            <polygon id="Fill-12" fill="#0085F1" points="0 175 410 175 410 0 0 0"></polygon>
            <path d="M365.594526,98.8917934 C365.594526,123.744535 345.447291,143.891793 320.594472,143.891793 C295.74176,143.891793 275.594526,123.744535 275.594526,98.8917934 C275.594526,74.0390519 295.74176,53.8917934 320.594472,53.8917934 C345.447291,53.8917934 365.594526,74.0390519 365.594526,98.8917934 Z" id="Fill-13" fill="#FFFFFF"></path>
            <path d="M295.975075,88.8794019 L295.975075,88.9122497 L300.343827,88.9122497 L300.343827,88.8794019 C300.365725,85.8792918 301.340199,83.4431075 303.267277,81.570776 C305.194355,79.6984445 307.69076,78.7622928 310.756566,78.7622928 C313.669081,78.7622928 316.116215,79.6655971 318.098039,81.4722327 C320.079864,83.2788684 321.070761,85.507019 321.070761,88.1567513 C321.070761,90.1933224 320.523304,92.1477444 319.428374,94.0200759 C318.333443,95.8924074 316.121716,98.6023203 312.793127,102.149896 L296.237857,120.051923 L296.237857,123.205308 L326.753423,123.205308 L326.753423,119.132186 L302.708865,119.132186 L302.708865,118.738013 L315.51949,105.073346 C319.417444,100.912609 322.067136,97.6388158 323.468648,95.2518668 C324.870159,92.8649179 325.570904,90.4451573 325.570904,87.9925125 C325.570904,84.2697481 324.158465,81.1437678 321.333543,78.6144779 C318.508622,76.0851879 315.015846,74.8205619 310.855109,74.8205619 C306.562981,74.8205619 303.020933,76.1399336 300.22886,78.7787167 C297.436786,81.4174997 296.018872,84.7843611 295.975075,88.8794019 Z M341.594597,123.205308 L346.061892,123.205308 L346.061892,75.8059946 L341.594597,75.8059946 C341.112827,76.0906766 340.236896,76.6655066 338.966776,77.5305019 C337.696656,78.3954971 336.328014,79.342598 334.860806,80.3718329 C333.393599,81.4010677 332.085177,82.3153212 330.9355,83.1146206 C329.785822,83.91392 329.079603,84.4011569 328.816819,84.5763458 L328.816819,89.3392705 C329.232893,89.0764872 330.037655,88.52903 331.231129,87.6968827 C332.424604,86.8647354 333.733026,85.9450074 335.156436,84.9376711 C336.579846,83.9303348 337.866371,83.0325051 339.016048,82.244155 C340.165725,81.4558049 340.882894,80.9849918 341.167576,80.8317015 L341.594597,80.8317015 L341.594597,123.205308 Z" id="21-in-Text" fill="#0088EE"></path>
            <path d="M90.710923,112.667225 L63.5974459,112.667225 L63.5974459,62.4523892 L50.8431311,62.4523892 L50.8431311,123.394364 L90.710923,123.394364 L90.710923,112.667225 Z M115.691385,85.0891863 C112.847694,85.0891863 110.503795,86.025338 108.659619,87.8976696 C106.815443,89.7700011 105.780749,92.2687519 105.555506,95.393997 L125.362703,95.393997 C125.250082,92.2124412 124.328008,89.6996129 122.596453,87.8554367 C120.864898,86.0112606 118.563232,85.0891863 115.691385,85.0891863 Z M125.658333,110.259953 L137.10343,110.259953 C136.174303,114.595879 133.816327,118.03782 130.029431,120.58588 C126.242535,123.133941 121.505466,124.407951 115.818084,124.407951 C108.722933,124.407951 103.183448,122.289292 99.1994647,118.051911 C95.2154811,113.814529 93.2235192,107.923108 93.2235192,100.377471 C93.2235192,92.8318342 95.2295586,86.8629872 99.2416976,82.4707508 C103.253837,78.0785145 108.722933,75.8824293 115.649152,75.8824293 C122.51906,75.8824293 127.875537,77.958856 131.718744,82.1117718 C135.561951,86.2646875 137.483526,92.0153338 137.483526,99.363883 L137.483526,103.038139 L105.513273,103.038139 L105.513273,103.671632 C105.597739,107.219207 106.590201,110.027662 108.490687,112.097081 C110.391174,114.1665 112.946235,115.201194 116.155946,115.201194 C118.577307,115.201194 120.597424,114.771832 122.216357,113.913093 C123.835291,113.054355 124.982604,111.836654 125.658333,110.259953 Z M160.943606,115.116729 C163.787297,115.116729 166.159351,114.286158 168.059838,112.624992 C169.960324,110.963825 170.910554,108.922592 170.910554,106.501231 L170.910554,102.995906 L161.534865,103.629399 C156.297968,103.995419 153.679559,105.909954 153.679559,109.373064 C153.679559,111.146852 154.355277,112.54756 155.706735,113.57523 C157.058192,114.602901 158.803798,115.116729 160.943606,115.116729 Z M156.889254,124.112322 C152.412551,124.112322 148.752409,122.845349 145.908718,120.311367 C143.065027,117.777384 141.643202,114.384714 141.643202,110.133255 C141.643202,101.489559 147.654282,96.8299166 159.676621,96.1541879 L170.910554,95.4784626 L170.910554,91.635275 C170.910554,87.4401262 168.306222,85.3425833 163.09748,85.3425833 C160.873206,85.3425833 159.043135,85.722675 157.607212,86.4828697 C156.171289,87.2430645 155.199943,88.3411071 154.693147,89.7770305 L143.374748,89.7770305 C143.768923,85.4974156 145.810156,82.1117842 149.498509,79.6200348 C153.186861,77.1282853 157.945046,75.8824293 163.773205,75.8824293 C169.939229,75.8824293 174.697414,77.26906 178.047902,80.0423631 C181.39839,82.8156662 183.073609,86.6799315 183.073609,91.635275 L183.073609,123.394364 L171.121718,123.394364 L171.121718,117.270603 L170.361527,117.270603 C169.179002,119.410411 167.391163,121.085629 164.997957,122.29631 C162.604752,123.50699 159.901878,124.112322 156.889254,124.112322 Z M189.752198,123.394364 L202.041952,123.394364 L202.041952,97.37894 C202.041952,94.1129181 203.090723,91.5367412 205.188298,89.650332 C207.285872,87.7639228 210.009863,86.8207324 213.360351,86.8207324 C214.373944,86.8207324 215.479025,86.8911197 216.675628,87.0318965 C217.872231,87.1726733 218.70984,87.341603 219.188481,87.5386905 L219.188481,76.6848531 C218.653529,76.5159209 217.92854,76.3821849 217.01349,76.2836412 C216.098441,76.1850974 215.218599,76.1358263 214.373938,76.1358263 C211.417626,76.1358263 208.841449,76.9100871 206.64533,78.4586319 C204.449212,80.0071768 203.041465,81.9498676 202.422047,84.2867625 L201.661857,84.2867625 L201.661857,76.8960172 L189.752198,76.8960172 L189.752198,123.394364 Z M223.98165,123.394364 L236.271404,123.394364 L236.271404,96.5342834 C236.271404,93.3808829 237.094936,90.8610159 238.742025,88.9746067 C240.389113,87.0881975 242.634469,86.1450071 245.478161,86.1450071 C248.406319,86.1450071 250.560171,86.9896553 251.939784,88.6789769 C253.319397,90.3682986 254.009193,92.8600107 254.009193,96.1541879 L254.009193,123.394364 L266.341179,123.394364 L266.341179,93.3245883 C266.341179,87.7498268 264.982703,83.4491599 262.265711,80.4224586 C259.548719,77.3957572 255.599989,75.8824293 250.419402,75.8824293 C246.984448,75.8824293 244.098567,76.6426126 241.761672,78.1630021 C239.424777,79.6833916 237.721403,81.7527796 236.651499,84.3712282 L235.891308,84.3712282 L235.891308,76.8960172 L223.98165,76.8960172 L223.98165,123.394364 Z" id="Learn-in-Text" fill="#FFFFFF"></path>
            <path d="M360.670516,51.3176083 L361.344636,63.2388923 C361.442206,64.9774129 360.413286,66.5828834 358.249005,68.0641739 C356.084724,69.5454644 353.131013,70.7251748 349.379002,71.5944351 C345.635861,72.4636954 341.5734,72.8983255 337.191618,72.8983255 C332.818707,72.8983255 328.756245,72.4636954 325.004234,71.5944351 C321.261093,70.7251748 318.298512,69.5543344 316.134231,68.0641739 C313.96995,66.5828834 312.94103,64.9685429 313.0386,63.2388923 L313.71272,51.3176083 L335.373268,58.1475106 C335.923208,58.3249107 336.526368,58.4136107 337.182748,58.4136107 C337.839128,58.4136107 338.442289,58.3249107 338.992229,58.1475106 L360.670516,51.3176083 Z M380.672373,41.7557451 C380.672373,42.3322953 380.397403,42.7225754 379.838592,42.9265855 L337.581898,56.20498 C337.484328,56.23159 337.351278,56.24046 337.209358,56.24046 C337.058568,56.24046 336.934388,56.23159 336.836818,56.20498 L312.2403,48.4348574 C311.158159,49.2863776 310.262289,50.6878381 309.561559,52.6392388 C308.860829,54.5906394 308.435069,56.8347502 308.275408,59.371571 C309.863139,60.2763113 310.652569,61.6511618 310.652569,63.4872524 C310.652569,65.225773 309.925229,66.5651434 308.461679,67.5231037 L310.652569,83.8616492 C310.705789,84.2164493 310.599349,84.5268994 310.350989,84.8018695 C310.120369,85.0768396 309.818789,85.2187596 309.446249,85.2187596 L302.199456,85.2187596 C301.826916,85.2187596 301.525336,85.0768396 301.294716,84.8018695 C301.046356,84.5268994 300.939916,84.2075793 300.993136,83.8616492 L303.184027,67.5231037 C301.729346,66.5651434 300.993136,65.216903 300.993136,63.4872524 C300.993136,61.6511618 301.809176,60.2585713 303.450127,59.300611 C303.725097,54.0939192 304.958027,49.9427579 307.148918,46.8471268 L294.580124,42.9177155 C294.030184,42.7137054 293.746344,42.3234253 293.746344,41.7468751 C293.746344,41.1703249 294.021314,40.7800448 294.580124,40.5760347 L336.836818,27.2976403 C336.934388,27.2710303 337.067438,27.2621603 337.209358,27.2621603 C337.360148,27.2621603 337.484328,27.2710303 337.581898,27.2976403 L379.838592,40.5760347 C380.397403,40.7889148 380.672373,41.1791949 380.672373,41.7557451 L380.672373,41.7557451 Z" id="Shape" fill="#0085F1" fill-rule="nonzero" transform="translate(337.209358, 56.240460) rotate(17.500000) translate(-337.209358, -56.240460) "></path>
        </g>
        <g id="cap" transform="translate(336.249125, 53.799131) rotate(17.500000) translate(-336.249125, -53.799131) translate(292.684378, 24.755966)" fill-rule="nonzero" fill="#FFFFFF">
            <path d="M66.9030902,24.1429364 L67.5762085,36.0465027 C67.6736335,37.7824394 66.6462424,39.3855239 64.4851783,40.8646129 C62.3241142,42.3437018 59.3747931,43.5216589 55.6283581,44.3896273 C51.89078,45.2575956 47.8343564,45.6915798 43.4590873,45.6915798 C39.0926749,45.6915798 35.0362513,45.2575956 31.2898164,44.3896273 C27.5522383,43.5216589 24.5940603,42.3525586 22.4329962,40.8646129 C20.2719321,39.3855239 19.244541,37.7735826 19.341966,36.0465027 L20.0150843,24.1429364 L41.6434391,30.9626879 C42.192562,31.1398243 42.7948257,31.2283925 43.4502304,31.2283925 C44.1056351,31.2283925 44.7078989,31.1398243 45.2570217,30.9626879 L66.9030902,24.1429364 Z M86.8752196,14.5952843 C86.8752196,15.1709776 86.6006582,15.5606777 86.0426785,15.7643846 L43.8487873,29.0230443 C43.7513623,29.0496148 43.61851,29.0584716 43.4768009,29.0584716 C43.326235,29.0584716 43.2022395,29.0496148 43.1048145,29.0230443 L18.5448522,21.2644699 C17.4643201,22.1147246 16.5697813,23.5141022 15.8700925,25.4626026 C15.1704037,27.4111031 14.7452763,29.6518786 14.5858536,32.1849291 C16.1712244,33.0883248 16.9594814,34.4611319 16.9594814,36.2944937 C16.9594814,38.0304304 16.2332221,39.3678103 14.7718468,40.3243468 L16.9594814,56.6386095 C17.0126223,56.9928823 16.9063405,57.302871 16.6583495,57.5774325 C16.4280722,57.8519939 16.1269403,57.993703 15.7549538,57.993703 L8.51893178,57.993703 C8.14694533,57.993703 7.84581345,57.8519939 7.61553612,57.5774325 C7.36754516,57.302871 7.26126332,56.9840255 7.31440424,56.6386095 L9.50203882,40.3243468 C8.04952031,39.3678103 7.31440424,38.0215736 7.31440424,36.2944937 C7.31440424,34.4611319 8.12923169,33.0706111 9.76774342,32.1140746 C10.0423048,26.9151211 11.2734028,22.7701293 13.4610374,19.6790991 L0.910923273,15.7555277 C0.361800424,15.5518209 0.0783821796,15.1621208 0.0783821796,14.5864275 C0.0783821796,14.0107342 0.352943604,13.6210341 0.910923273,13.4173272 L43.1048145,0.158667465 C43.2022395,0.132097004 43.3350918,0.123240184 43.4768009,0.123240184 C43.6273668,0.123240184 43.7513623,0.132097004 43.8487873,0.158667465 L86.0426785,13.4173272 C86.6006582,13.6298909 86.8752196,14.019591 86.8752196,14.5952843 L86.8752196,14.5952843 Z" id="Shape"></path>
        </g>
    </g>
</svg>

<svg width="410" height="175" viewBox="0 0 410 175" xmlns="http://www.w3.org/2000/svg"><g fill="none" fill-rule="evenodd"><path d="M365.595 98.892c0 24.853-20.148 45-45 45-24.853 0-45-20.147-45-45s20.147-45 45-45c24.852 0 45 20.147 45 45z" fill="#FFF"/><path d="M295.975 88.88v.032h4.369v-.033c.022-3 .996-5.436 2.923-7.308 1.927-1.873 4.424-2.809 7.49-2.809 2.912 0 5.36.904 7.341 2.71 1.982 1.807 2.973 4.035 2.973 6.685 0 2.036-.548 3.99-1.643 5.863-1.095 1.872-3.306 4.582-6.635 8.13l-16.555 17.902v3.153h30.515v-4.073H302.71v-.394l12.81-13.665c3.898-4.16 6.548-7.434 7.95-9.821 1.401-2.387 2.102-4.807 2.102-7.26 0-3.722-1.413-6.848-4.237-9.378-2.825-2.529-6.318-3.793-10.479-3.793-4.292 0-7.834 1.319-10.626 3.958-2.792 2.638-4.21 6.005-4.254 10.1zm45.62 34.325h4.467V75.806h-4.467c-.482.285-1.358.86-2.628 1.725a362.3 362.3 0 0 0-4.106 2.84 1152.14 1152.14 0 0 1-3.925 2.744c-1.15.799-1.856 1.286-2.12 1.461v4.763c.417-.263 1.222-.81 2.415-1.642a690.273 690.273 0 0 0 3.925-2.76 321.093 321.093 0 0 1 3.86-2.693c1.15-.788 1.867-1.259 2.152-1.412h.427v42.373z" fill="#08E"/><path d="M90.71 112.667H63.598V62.452H50.843v60.942h39.868v-10.727zm24.981-27.578c-2.843 0-5.187.936-7.031 2.809-1.845 1.872-2.88 4.37-3.104 7.496h19.807c-.113-3.182-1.035-5.694-2.767-7.539-1.731-1.844-4.033-2.766-6.905-2.766zm9.967 25.171h11.445c-.929 4.336-3.287 7.778-7.074 10.326-3.786 2.548-8.524 3.822-14.21 3.822-7.096 0-12.636-2.119-16.62-6.356-3.984-4.237-5.975-10.129-5.975-17.675 0-7.545 2.006-13.514 6.018-17.906 4.012-4.392 9.48-6.589 16.407-6.589 6.87 0 12.227 2.077 16.07 6.23 3.843 4.153 5.765 9.903 5.765 17.252v3.674h-31.97v.634c.084 3.547 1.076 6.356 2.977 8.425 1.9 2.07 4.455 3.104 7.665 3.104 2.421 0 4.441-.43 6.06-1.288 1.62-.859 2.767-2.076 3.442-3.653zm35.286 4.857c2.843 0 5.215-.83 7.116-2.492 1.9-1.661 2.85-3.702 2.85-6.124v-3.505l-9.375.633c-5.237.366-7.855 2.281-7.855 5.744 0 1.774.675 3.175 2.027 4.202 1.351 1.028 3.097 1.542 5.237 1.542zm-4.055 8.995c-4.476 0-8.137-1.267-10.98-3.8-2.844-2.535-4.266-5.927-4.266-10.179 0-8.643 6.011-13.303 18.034-13.979l11.234-.676v-3.843c0-4.195-2.605-6.292-7.814-6.292-2.224 0-4.054.38-5.49 1.14-1.436.76-2.407 1.858-2.914 3.294h-11.318c.394-4.28 2.435-7.665 6.124-10.157 3.688-2.492 8.446-3.738 14.274-3.738 6.166 0 10.924 1.387 14.275 4.16 3.35 2.774 5.026 6.638 5.026 11.593v31.76h-11.952v-6.124h-.76c-1.183 2.14-2.97 3.815-5.364 5.025-2.393 1.211-5.096 1.816-8.109 1.816zm32.863-.718h12.29V97.38c0-3.266 1.049-5.842 3.146-7.729 2.098-1.886 4.822-2.83 8.172-2.83 1.014 0 2.119.071 3.316.212 1.196.14 2.034.31 2.512.507V76.685c-.534-.17-1.26-.303-2.175-.401a24.671 24.671 0 0 0-2.64-.148c-2.955 0-5.532.774-7.728 2.323-2.196 1.548-3.604 3.49-4.223 5.828h-.76v-7.391h-11.91v46.498zm34.23 0h12.29v-26.86c0-3.153.823-5.673 2.47-7.56 1.647-1.886 3.892-2.829 6.736-2.829 2.928 0 5.082.845 6.462 2.534 1.38 1.69 2.07 4.181 2.07 7.475v27.24h12.331v-30.07c0-5.574-1.358-9.875-4.075-12.902-2.717-3.026-6.666-4.54-11.847-4.54-3.435 0-6.32.76-8.657 2.281-2.337 1.52-4.04 3.59-5.11 6.208h-.76v-7.475h-11.91v46.498z" fill="#FFF"/><path d="M361.065 58.6l-2.942 11.573c-.43 1.687-1.894 2.909-4.403 3.67-2.51.763-5.682 1-9.521.7-3.832-.296-7.837-1.103-12.016-2.421-4.17-1.315-7.914-2.951-11.23-4.908-3.31-1.955-5.783-3.962-7.399-6.034-1.618-2.064-2.114-3.913-1.501-5.533l4.228-11.167 18.604 13.027c.47.335 1.02.6 1.646.798a5.867 5.867 0 0 0 1.805.29l22.729.005zm21.951-3.104c-.173.55-.553.84-1.147.866l-44.294-.043a1.516 1.516 0 0 1-.366-.079 1.471 1.471 0 0 1-.344-.145l-21.122-14.807c-1.288.486-2.564 1.554-3.819 3.204-1.255 1.65-2.336 3.663-3.251 6.034 1.242 1.34 1.582 2.889 1.03 4.64-.523 1.658-1.62 2.717-3.304 3.19l-2.823 16.241c-.056.355-.251.619-.57.806a1.128 1.128 0 0 1-.989.126l-6.911-2.18a1.128 1.128 0 0 1-.738-.669c-.154-.337-.16-.673-.005-.987l7.003-14.924c-1.1-1.35-1.396-2.858-.876-4.508.552-1.75 1.75-2.833 3.602-3.254 1.828-4.883 4.252-8.47 7.273-10.764l-10.806-7.528c-.463-.36-.616-.817-.443-1.367.174-.55.553-.84 1.148-.866l44.293.043c.101.004.23.036.366.078.144.046.26.092.345.146l36.308 25.37c.469.372.614.827.44 1.377z" fill="#0085F1" fill-rule="nonzero"/><path d="M359.98 56.144l-2.937 11.555c-.429 1.685-1.89 2.905-4.396 3.665-2.506.761-5.673.998-9.507.699-3.826-.296-7.825-1.102-11.998-2.418-4.164-1.313-7.902-2.946-11.214-4.9-3.304-1.953-5.774-3.957-7.387-6.026-1.617-2.06-2.112-3.907-1.5-5.525l4.222-11.15 18.577 13.008c.47.334 1.018.6 1.643.797a5.859 5.859 0 0 0 1.803.29l22.695.005zm21.92-3.1c-.173.549-.553.838-1.146.864l-44.228-.043c-.1-.004-.23-.035-.365-.078a1.469 1.469 0 0 1-.344-.145l-21.09-14.785c-1.287.486-2.56 1.551-3.814 3.2-1.253 1.647-2.333 3.656-3.246 6.024 1.24 1.339 1.579 2.885 1.028 4.633-.522 1.656-1.617 2.713-3.298 3.186l-2.82 16.217c-.056.354-.25.618-.57.805a1.126 1.126 0 0 1-.986.125l-6.901-2.176a1.126 1.126 0 0 1-.737-.668c-.154-.337-.16-.673-.005-.986l6.993-14.902c-1.098-1.349-1.394-2.854-.875-4.5.551-1.75 1.747-2.83 3.597-3.25 1.825-4.876 4.246-8.459 7.262-10.749l-10.79-7.516c-.462-.36-.615-.816-.442-1.365.173-.55.552-.838 1.145-.865l44.228.043c.101.004.23.036.366.078.143.046.259.091.344.146L381.46 51.67c.468.37.613.825.44 1.374z" fill-rule="nonzero" fill="#FFF"/></g></svg>
